X: 10
T:Difyrrwch Arglwyddes Owen
T:Lord Owen's Amusement
M:3/4
L:1/8
Q:160
C:Trad
S:Blodau'r Grug Collection Vol. 2
R:Waltz
A:Wales
Z:brian_martin12345@yahoo.com
K:A
ed|c3de2|F2G2A2|B2c2A2|G4e2|c2A2d2|B2G2c2|A2B2G2|A4:||!
ed|c2d2e2|f4e2|f2B2A2|G4ed|c2d2e2|f2B2e2|a2f2^d2|e4d2|!
c2d2e2|f>ga2e2|f2B2A2|G4e2|c2A2d2|B2G2c2|A2B2G2|A4||
